packages/appstore/src/assets/svgs/wallet/onlinenaira-light.svg

<svg width="128" height="80" viewBox="0 0 128 80" fill="none" xmlns="http://www.w3.org/2000/svg">
<path d="M20.6497 27.4836C19.5236 27.1685 18.3363 27 17.1096 27C9.86936 27 4 32.8694 4 40.1096C4 45.671 7.46307 50.4236 12.3504 52.3286L12.3552 52.3053L12.3732 52.3311L12.7349 50.4704L12.8738 49.7991C12.8712 49.798 12.8686 49.7968 12.866 49.7957L14.9951 38.8409L19.6469 46.4529H21.7614L24.7197 32.7707C26.5538 34.6721 27.6818 37.2591 27.6818 40.1096C27.6818 45.9485 22.9485 50.6818 17.1096 50.6818C16.5321 50.6818 15.9654 50.6355 15.413 50.5464L14.8761 53.0297C15.6019 53.1543 16.3482 53.2192 17.1096 53.2192C24.3498 53.2192 30.2192 47.3498 30.2192 40.1096C30.2192 35.0309 27.3312 30.6267 23.108 28.4497L23.0977 28.4378L23.0964 28.4438L23.092 28.4415L23.0657 28.5834L20.0698 42.224L15.8409 34.612H13.3036L10.5463 48.3984C8.10391 46.4619 6.53734 43.4687 6.53734 40.1096C6.53734 34.2707 11.2707 29.5373 17.1096 29.5373C18.1665 29.5373 19.1872 29.6924 20.1502 29.9811L20.6497 27.4836Z" fill="#008751"/>
<path d="M46.9629 39.9075C46.9629 41.0859 46.7592 42.1211 46.3517 43.0131C45.9442 43.8996 45.3606 44.5824 44.6007 45.0615C43.8463 45.535 42.9763 45.7718 41.9907 45.7718C41.016 45.7718 40.146 45.535 39.3806 45.0615C38.6207 44.5824 38.0316 43.9024 37.6131 43.0214C37.2001 42.1404 36.9909 41.1244 36.9854 39.9736V39.2963C36.9854 38.1235 37.1918 37.0883 37.6048 36.1907C38.0233 35.2932 38.6097 34.6076 39.3641 34.1341C40.124 33.655 40.994 33.4155 41.9741 33.4155C42.9543 33.4155 43.8215 33.6523 44.5759 34.1258C45.3358 34.5939 45.9222 35.2711 46.3352 36.1577C46.7482 37.0387 46.9574 38.0656 46.9629 39.2385V39.9075ZM44.8732 39.2798C44.8732 37.9472 44.6199 36.9258 44.1134 36.2155C43.6123 35.5052 42.8992 35.15 41.9741 35.15C41.0711 35.15 40.3635 35.5052 39.8514 36.2155C39.3448 36.9203 39.086 37.9197 39.075 39.2137V39.9075C39.075 41.2291 39.3311 42.2505 39.8432 42.9718C40.3608 43.6932 41.0766 44.0538 41.9907 44.0538C42.9157 44.0538 43.626 43.7014 44.1216 42.9966C44.6227 42.2918 44.8732 41.2621 44.8732 39.9075V39.2798Z" fill="#333333"/>
<path d="M50.7128 36.6698L50.7706 37.7022C51.4313 36.9038 52.2986 36.5046 53.3723 36.5046C55.2335 36.5046 56.1806 37.5701 56.2136 39.701V45.6066H54.2066V39.8167C54.2066 39.2495 54.0827 38.831 53.8349 38.5612C53.5926 38.2859 53.1934 38.1482 52.6372 38.1482C51.8278 38.1482 51.2249 38.5144 50.8284 39.2468V45.6066H48.8213V36.6698H50.7128Z" fill="#333333"/>
<path d="M60.4012 45.6066H58.3942V32.9199H60.4012V45.6066Z" fill="#333333"/>
<path d="M64.7292 45.6066H62.7222V36.6698H64.7292V45.6066ZM62.5983 34.3488C62.5983 34.0405 62.6946 33.7844 62.8874 33.5807C63.0856 33.377 63.3664 33.2751 63.7298 33.2751C64.0933 33.2751 64.3741 33.377 64.5723 33.5807C64.7705 33.7844 64.8697 34.0405 64.8697 34.3488C64.8697 34.6517 64.7705 34.905 64.5723 35.1087C64.3741 35.3069 64.0933 35.4061 63.7298 35.4061C63.3664 35.4061 63.0856 35.3069 62.8874 35.1087C62.6946 34.905 62.5983 34.6517 62.5983 34.3488Z" fill="#333333"/>
<path d="M68.7847 36.6698L68.8425 37.7022C69.5033 36.9038 70.3705 36.5046 71.4443 36.5046C73.3054 36.5046 74.2525 37.5701 74.2856 39.701V45.6066H72.2785V39.8167C72.2785 39.2495 72.1546 38.831 71.9068 38.5612C71.6645 38.2859 71.2653 38.1482 70.7092 38.1482C69.8997 38.1482 69.2968 38.5144 68.9003 39.2468V45.6066H66.8933V36.6698H68.7847Z" fill="#333333"/>
<path d="M80.2738 45.7718C79.0018 45.7718 77.9693 45.3726 77.1764 44.5742C76.389 43.7702 75.9953 42.702 75.9953 41.3695V41.1217C75.9953 40.2296 76.166 39.434 76.5074 38.7347C76.8543 38.0298 77.3389 37.482 77.9611 37.091C78.5833 36.7001 79.2771 36.5046 80.0425 36.5046C81.2594 36.5046 82.1982 36.8928 82.859 37.6692C83.5253 38.4456 83.8584 39.5441 83.8584 40.9647V41.7742H78.0189C78.0795 42.512 78.3245 43.0957 78.754 43.5252C79.189 43.9547 79.7341 44.1695 80.3894 44.1695C81.309 44.1695 82.0578 43.7978 82.636 43.0544L83.718 44.0869C83.3601 44.621 82.881 45.0367 82.2808 45.3341C81.6861 45.6259 81.0171 45.7718 80.2738 45.7718ZM80.0342 38.1152C79.4836 38.1152 79.0376 38.3079 78.6962 38.6934C78.3603 39.0788 78.1455 39.6157 78.0519 40.304H81.8761V40.1553C81.8321 39.4835 81.6531 38.9769 81.3392 38.6355C81.0254 38.2886 80.5904 38.1152 80.0342 38.1152Z" fill="#333333"/>
<path d="M95.1575 45.6066H93.0678L87.7074 37.0745V45.6066H85.6177V33.5807H87.7074L93.0844 42.1459V33.5807H95.1575V45.6066Z" fill="#333333"/>
<path d="M102.773 45.6066C102.685 45.4359 102.608 45.1579 102.542 44.7724C101.903 45.4387 101.121 45.7718 100.196 45.7718C99.2983 45.7718 98.566 45.5158 97.9988 45.0037C97.4316 44.4916 97.1481 43.8583 97.1481 43.104C97.1481 42.1514 97.5005 41.4218 98.2053 40.9152C98.9156 40.4031 99.9288 40.147 101.245 40.147H102.475V39.5606C102.475 39.0981 102.346 38.7292 102.087 38.4538C101.828 38.173 101.435 38.0326 100.906 38.0326C100.449 38.0326 100.075 38.1482 99.7829 38.3795C99.491 38.6053 99.3451 38.8943 99.3451 39.2468H97.338C97.338 38.7567 97.5005 38.2997 97.8254 37.8757C98.1502 37.4462 98.5907 37.1103 99.1469 36.868C99.7085 36.6257 100.334 36.5046 101.022 36.5046C102.068 36.5046 102.902 36.7689 103.524 37.2975C104.147 37.8206 104.466 38.5585 104.483 39.5111V43.5417C104.483 44.3457 104.595 44.9872 104.821 45.4662V45.6066H102.773ZM100.568 44.1612C100.964 44.1612 101.336 44.0648 101.683 43.8721C102.035 43.6794 102.299 43.4206 102.475 43.0957V41.4108H101.393C100.65 41.4108 100.091 41.5402 99.7168 41.799C99.3424 42.0578 99.1551 42.4239 99.1551 42.8975C99.1551 43.2829 99.2818 43.5913 99.5351 43.8226C99.7939 44.0483 100.138 44.1612 100.568 44.1612Z" fill="#333333"/>
<path d="M108.72 45.6066H106.713V36.6698H108.72V45.6066ZM106.589 34.3488C106.589 34.0405 106.685 33.7844 106.878 33.5807C107.076 33.377 107.357 33.2751 107.72 33.2751C108.084 33.2751 108.365 33.377 108.563 33.5807C108.761 33.7844 108.86 34.0405 108.86 34.3488C108.86 34.6517 108.761 34.905 108.563 35.1087C108.365 35.3069 108.084 35.4061 107.72 35.4061C107.357 35.4061 107.076 35.3069 106.878 35.1087C106.685 34.905 106.589 34.6517 106.589 34.3488Z" fill="#333333"/>
<path d="M115.592 38.5034C115.327 38.4593 115.055 38.4373 114.774 38.4373C113.854 38.4373 113.235 38.7897 112.916 39.4945V45.6066H110.909V36.6698H112.825L112.874 37.6692C113.359 36.8928 114.031 36.5046 114.89 36.5046C115.176 36.5046 115.413 36.5431 115.6 36.6202L115.592 38.5034Z" fill="#333333"/>
<path d="M121.952 45.6066C121.863 45.4359 121.786 45.1579 121.72 44.7724C121.082 45.4387 120.3 45.7718 119.375 45.7718C118.477 45.7718 117.745 45.5158 117.178 45.0037C116.61 44.4916 116.327 43.8583 116.327 43.104C116.327 42.1514 116.679 41.4218 117.384 40.9152C118.094 40.4031 119.108 40.147 120.424 40.147H121.654V39.5606C121.654 39.0981 121.525 38.7292 121.266 38.4538C121.007 38.173 120.614 38.0326 120.085 38.0326C119.628 38.0326 119.253 38.1482 118.962 38.3795C118.67 38.6053 118.524 38.8943 118.524 39.2468H116.517C116.517 38.7567 116.679 38.2997 117.004 37.8757C117.329 37.4462 117.769 37.1103 118.326 36.868C118.887 36.6257 119.512 36.5046 120.201 36.5046C121.247 36.5046 122.081 36.7689 122.703 37.2975C123.325 37.8206 123.645 38.5585 123.661 39.5111V43.5417C123.661 44.3457 123.774 44.9872 124 45.4662V45.6066H121.952ZM119.746 44.1612C120.143 44.1612 120.514 44.0648 120.861 43.8721C121.214 43.6794 121.478 43.4206 121.654 43.0957V41.4108H120.572C119.829 41.4108 119.27 41.5402 118.896 41.799C118.521 42.0578 118.334 42.4239 118.334 42.8975C118.334 43.2829 118.461 43.5913 118.714 43.8226C118.973 44.0483 119.317 44.1612 119.746 44.1612Z" fill="#333333"/>
</svg>

<svg width="128" height="80" fill="none" xmlns="http://www.w3.org/2000/svg"><path d="M20.65 27.484A13.12 13.12 0 0 0 17.11 27C9.87 27 4 32.87 4 40.11c0 5.561 3.463 10.314 8.35 12.219l.005-.024.018.026.362-1.86.139-.672-.008-.003 2.13-10.955 4.65 7.612h2.115L24.72 32.77a10.537 10.537 0 0 1 2.962 7.339c0 5.839-4.733 10.572-10.572 10.572-.578 0-1.145-.047-1.697-.136l-.537 2.484c.726.124 1.472.19 2.234.19 7.24 0 13.11-5.87 13.11-13.11 0-5.08-2.889-9.483-7.112-11.66l-.01-.012-.002.006-.004-.002-.026.141-2.996 13.641-4.23-7.612h-2.536l-2.758 13.786a10.553 10.553 0 0 1-4.009-8.288c0-5.84 4.734-10.573 10.573-10.573 1.056 0 2.077.155 3.04.444l.5-2.497z" fill="#008751"/><path d="M46.963 39.907c0 1.179-.204 2.214-.611 3.106-.408.887-.991 1.57-1.751 2.049-.755.473-1.625.71-2.61.71-.975 0-1.845-.237-2.61-.71-.76-.48-1.35-1.16-1.768-2.04-.413-.882-.622-1.898-.628-3.048v-.678c0-1.172.207-2.208.62-3.105.418-.898 1.005-1.583 1.76-2.057.759-.479 1.629-.718 2.61-.718.98 0 1.846.236 2.6.71.76.468 1.347 1.145 1.76 2.032.413.88.622 1.908.628 3.08v.67zm-2.09-.627c0-1.333-.253-2.354-.76-3.065-.5-.71-1.214-1.065-2.139-1.065-.903 0-1.61.355-2.123 1.066-.506.704-.765 1.704-.776 2.998v.694c0 1.321.256 2.343.768 3.064.518.721 1.234 1.082 2.148 1.082.925 0 1.635-.353 2.13-1.057.502-.705.752-1.735.752-3.09v-.627zM50.713 36.67l.058 1.032c.66-.798 1.528-1.197 2.601-1.197 1.861 0 2.809 1.065 2.842 3.196v5.906h-2.007v-5.79c0-.568-.124-.986-.372-1.256-.242-.275-.642-.413-1.198-.413-.81 0-1.412.366-1.809 1.099v6.36h-2.007V36.67h1.892zM60.401 45.607h-2.007V32.92h2.007v12.687zM64.73 45.607h-2.008V36.67h2.007v8.937zm-2.132-11.258c0-.308.097-.565.29-.768.198-.204.478-.306.842-.306.363 0 .644.102.842.306.198.203.298.46.298.768 0 .303-.1.556-.298.76-.198.198-.479.297-.842.297-.364 0-.644-.1-.843-.297a1.063 1.063 0 0 1-.289-.76zM68.785 36.67l.058 1.032c.66-.798 1.528-1.197 2.601-1.197 1.861 0 2.808 1.065 2.842 3.196v5.906h-2.008v-5.79c0-.568-.123-.986-.371-1.256-.242-.275-.642-.413-1.198-.413-.81 0-1.412.366-1.809 1.099v6.36h-2.007V36.67h1.892zM80.274 45.772c-1.272 0-2.305-.4-3.098-1.198-.787-.804-1.18-1.872-1.18-3.204v-.248c0-.892.17-1.688.511-2.387.347-.705.832-1.253 1.454-1.644a3.833 3.833 0 0 1 2.082-.586c1.216 0 2.155.388 2.816 1.164.666.777 1 1.875 1 3.296v.81h-5.84c.06.737.305 1.32.735 1.75.435.43.98.645 1.635.645.92 0 1.669-.372 2.247-1.116l1.082 1.033c-.358.534-.837.95-1.437 1.247-.595.292-1.264.438-2.007.438zm-.24-7.657c-.55 0-.996.193-1.338.578-.336.386-.55.923-.644 1.611h3.824v-.149c-.044-.672-.223-1.178-.537-1.52-.314-.346-.749-.52-1.305-.52zM95.157 45.607h-2.09l-5.36-8.532v8.532h-2.09V33.58h2.09l5.377 8.565V33.58h2.073v12.026zM102.773 45.607c-.088-.171-.165-.45-.231-.835-.639.667-1.421 1-2.346 1-.898 0-1.63-.256-2.197-.768-.567-.512-.85-1.146-.85-1.9 0-.953.352-1.682 1.056-2.189.71-.512 1.724-.768 3.04-.768h1.23v-.586c0-.463-.129-.832-.388-1.107-.259-.281-.652-.421-1.181-.421-.457 0-.831.115-1.123.346a1.05 1.05 0 0 0-.438.868h-2.007c0-.49.163-.947.487-1.371.325-.43.766-.766 1.322-1.008a4.688 4.688 0 0 1 1.875-.363c1.046 0 1.88.264 2.502.792.623.524.942 1.262.959 2.214v4.03c0 .805.112 1.446.338 1.925v.14h-2.048zm-2.205-1.446c.396 0 .768-.096 1.115-.289.352-.193.616-.451.792-.776V41.41h-1.082c-.743 0-1.302.13-1.676.388-.375.259-.562.625-.562 1.099 0 .385.127.693.38.925.259.225.603.338 1.033.338zM108.72 45.607h-2.007V36.67h2.007v8.937zm-2.131-11.258c0-.308.096-.565.289-.768.198-.204.479-.306.842-.306.364 0 .645.102.843.306.198.203.297.46.297.768 0 .303-.099.556-.297.76-.198.198-.479.297-.843.297-.363 0-.644-.1-.842-.297a1.062 1.062 0 0 1-.289-.76zM115.592 38.503a4.97 4.97 0 0 0-.818-.066c-.92 0-1.539.353-1.858 1.058v6.112h-2.007V36.67h1.916l.049 1c.485-.777 1.157-1.165 2.016-1.165.286 0 .523.038.71.115l-.008 1.883zM121.952 45.607c-.089-.171-.166-.45-.232-.835-.638.667-1.42 1-2.345 1-.898 0-1.63-.256-2.197-.768-.568-.512-.851-1.146-.851-1.9 0-.953.352-1.682 1.057-2.189.71-.512 1.724-.768 3.04-.768h1.23v-.586c0-.463-.129-.832-.388-1.107-.259-.281-.652-.421-1.181-.421-.457 0-.832.115-1.123.346a1.05 1.05 0 0 0-.438.868h-2.007c0-.49.162-.947.487-1.371.325-.43.765-.766 1.322-1.008a4.682 4.682 0 0 1 1.875-.363c1.046 0 1.88.264 2.502.792.622.524.942 1.262.958 2.214v4.03c0 .805.113 1.446.339 1.925v.14h-2.048zm-2.206-1.446c.397 0 .768-.096 1.115-.289a1.92 1.92 0 0 0 .793-.776V41.41h-1.082c-.743 0-1.302.13-1.676.388-.375.259-.562.625-.562 1.099 0 .385.127.693.38.925.259.225.603.338 1.032.338z" fill="#333"/></svg>
